; generated by PrusaSlicer 2.4.0+arm64 on 2022-03-01 at 04:33:30 UTC


;
;

;
;
; 

; external perimeters extrusion width = 0.45mm
; perimeters extrusion width = 0.45mm
; infill extrusion width = 0.45mm
; solid infill extrusion width = 0.45mm
; top infill extrusion width = 0.40mm
; first layer extrusion width = 0.42mm

M73 P0 R19
M201 X2500 Y2500 Z400 E5000 ; sets maximum accelerations, mm/sec^2
M203 X180 Y180 Z12 E80 ; sets maximum feedrates, mm/sec
M204 P1250 R1250 T2500 ; sets acceleration (P, T) and retract acceleration (R), mm/sec^2
M205 X8.00 Y8.00 Z2.00 E10.00 ; sets the jerk limits, mm/sec
M205 S0 T0 ; sets the minimum extruding and travel feed rate, mm/sec
M107
;TYPE:Custom
G90 ; use absolute coordinates
M83 ; extruder relative mode
M104 S170 ; set extruder temp for bed leveling
M140 S60 ; set bed temp
M109 R170 ; wait for bed leveling temp
M190 S60 ; wait for bed temp
M204 T1250 ; set travel acceleration
G28 ; home all without mesh bed level
G29 ; mesh bed leveling 
M204 T2500 ; restore travel acceleration
M104 S215 ; set extruder temp
G92 E0
G1 Y-2 X179 F2400
G1 Z3 F720
M109 S215 ; wait for extruder temp

; intro line
M73 P0 R18
G1 X170 F1000
G1 Z0.2 F720
G1 X110 E8 F900
G1 X40 E10 F700
G92 E0

M221 S95 ; set flow
G21 ; set units to millimeters
G90 ; use absolute coordinates
M83 ; use relative distances for extrusion
M900 K0.2 ; Filament gcode LA 1.5
; ; Filament gcode LA 1.0
M107
;LAYER_CHANGE
;Z:0.2
;HEIGHT:0.2
;BEFORE_LAYER_CHANGE
G92 E0.0
;0.2


G1 E-3.2 F4200
M73 P1 R18
G1 Z.2 F720
;AFTER_LAYER_CHANGE
;0.2
G1 Z.4
G1 X80.929 Y66.69 F9000
G1 Z.2 F720
G1 E3.2 F2400
M204 P800
;TYPE:Skirt/Brim
;WIDTH:0.42
G1 F1200
G1 X81.649 Y65.894 E.03363
G1 X82.438 Y65.168 E.03364
G1 X83.342 Y64.481 E.03559
G1 X84.582 Y63.737 E.04535
G1 X85.557 Y63.286 E.03368
G1 X86.662 Y62.898 E.0367
G1 X87.703 Y62.641 E.03364
G1 X88.763 Y62.479 E.03363
G1 X89.903 Y62.415 E.0358
G1 X91.351 Y62.492 E.04545
G1 X92.411 Y62.664 E.03368
G1 X94.463 Y63.294 E.0673
G1 X95.512 Y63.786 E.03634
G1 X96.436 Y64.332 E.03364
G1 X98.116 Y65.663 E.06721
G1 X98.858 Y66.439 E.03364
G1 X99.57 Y67.341 E.03606
G1 X100.341 Y68.575 E.0456
G1 X100.809 Y69.542 E.03369
G1 X101.209 Y70.619 E.03603
G1 X101.487 Y71.656 E.03365
G1 X101.669 Y72.713 E.03364
G1 X101.755 Y73.841 E.03545
G1 X101.703 Y75.321 E.04644
G1 X101.536 Y76.453 E.03589
G1 X95.9 Y104.498 E.89689
G1 X93.896 Y112.277 E.25189
G1 X93.251 Y113.46 E.04224
G1 X92.092 Y114.711 E.05348
G1 X90.841 Y115.485 E.04612
G1 X89.202 Y115.454 E.05138
G1 X84.155 Y113.777 E.16675
G1 X82.934 Y112.957 E.04612
G1 X82.286 Y111.465 E.05099
G1 X78.294 Y75.29 E1.14114
G1 X78.241 Y74.226 E.03341
G1 X78.296 Y73.032 E.03745
G1 X78.449 Y71.97 E.03364
G1 X78.697 Y70.931 E.03349
G1 X79.06 Y69.864 E.03534
G1 X79.67 Y68.556 E.04526
G1 X80.225 Y67.637 E.03368
G1 X80.894 Y66.738 E.03512
M204 P1000
G1 X81.196 Y66.962 F9000
M204 P800
G1 F1200
G1 X81.914 Y66.163 E.03369
G1 X82.677 Y65.459 E.03256
G1 X83.557 Y64.792 E.03462
M73 P2 R18
G1 X84.762 Y64.069 E.04407
G1 X85.706 Y63.633 E.0326
G1 X86.765 Y63.261 E.03521
G1 X87.773 Y63.011 E.03257
G1 X88.8 Y62.855 E.03255
G1 X89.902 Y62.792 E.03462
G1 X91.314 Y62.868 E.04433
G1 X92.34 Y63.035 E.0326
G1 X94.325 Y63.645 E.06514
G1 X95.333 Y64.118 E.0349
G1 X96.228 Y64.646 E.03256
G1 X97.854 Y65.935 E.06506
G1 X98.572 Y66.685 E.03257
G1 X99.268 Y67.567 E.03523
G1 X100.012 Y68.76 E.04407
G1 X100.464 Y69.696 E.03261
G1 X100.849 Y70.731 E.03463
G1 X101.118 Y71.735 E.03258
G1 X101.294 Y72.759 E.03257
G1 X101.378 Y73.861 E.03466
G1 X101.327 Y75.29 E.04485
G1 X101.167 Y76.379 E.03451
G1 X95.531 Y104.423 E.89689
G1 X93.531 Y112.183 E.25125
G1 X92.974 Y113.204 E.03646
G1 X91.815 Y114.455 E.05348
G1 X90.64 Y115.148 E.04278
G1 X89.321 Y115.096 E.04138
G1 X84.274 Y113.419 E.16675
G1 X83.157 Y112.635 E.04278
G1 X82.661 Y111.424 E.04104
G1 X78.669 Y75.249 E1.14114
G1 X78.618 Y74.217 E.03237
G1 X78.671 Y73.078 E.03576
G1 X78.818 Y72.051 E.03254
G1 X79.057 Y71.041 E.03255
G1 X79.409 Y70.007 E.03422
G1 X80.004 Y68.73 E.04417
G1 X80.542 Y67.841 E.0326
G1 X81.16 Y67.011 E.03245
M204 P1000
; printing object key4 id:0 copy 0
G1 E-2.24 F4200
;WIPE_START
G1 F7200
G1 X81.914 Y66.163 E-.62857
G1 X82.29 Y65.817 E-.28343
;WIPE_END
G1 E-.048 F4200
G1 Z.4 F720
G1 X90.281 Y110.824 F9000
G1 Z.2 F720
G1 E3.2 F2400
M204 P800
;TYPE:External perimeter
G1 F1200
G1 X90.464 Y110.976 E.00746
G1 X90.464 Y112.106 E.03544
G1 X90.281 Y112.304 E.00846
G1 X90.281 Y110.884 E.04453
M204 P1000
G1 X90.422 Y111.016 F9000
G1 E-2.24 F4200
;WIPE_START
G1 F7200
G1 X90.464 Y110.976 E-.11364
G1 X90.464 Y112.106 E-.62641
G1 X90.281 Y112.304 E-.14958
G1 X90.281 Y112.264 E-.02237
;WIPE_END
G1 E-.048 F4200
G1 Z.4 F720
G1 X87.396 Y81.78 F9000
G1 Z.2 F720
G1 E3.2 F2400
M204 P800
;TYPE:Perimeter
G1 F1200
G1 X86.916 Y81.594 E.01614
G1 X86.632 Y81.356 E.01161
G1 X87.015 Y81.535 E.01326
G1 X87.794 Y81.804 E.02583
G1 X88.173 Y81.902 E.01229
G1 X87.9 Y81.927 E.00861
G1 X87.453 Y81.797 E.01459
M204 P1000
G1 E-2.24 F4200
;WIPE_START
G1 F7200
G1 X86.916 Y81.594 E-.31834
G1 X86.632 Y81.356 E-.20513
G1 X87.015 Y81.535 E-.23441
G1 X87.278 Y81.626 E-.15412
;WIPE_END
G1 E-.048 F4200
G1 Z.4 F720
G1 X89.261 Y81.707 F9000
G1 Z.2 F720
G1 E3.2 F2400
M204 P800
G1 F1200
G1 X89.261 Y81.794 E.00273
G1 X87.903 Y81.443 E.04398
G1 X87.157 Y81.185 E.02474
G1 X86.458 Y80.858 E.02422
G1 X85.747 Y80.43 E.026
G1 X85.118 Y79.954 E.02474
G1 X84.543 Y79.413 E.02474
G1 X84.264 Y79.107 E.01298
G1 X83.796 Y78.503 E.02398
G1 X83.564 Y78.149 E.01325
G1 X83.359 Y77.798 E.01276
G1 X83.017 Y77.086 E.02474
G1 X82.75 Y76.336 E.02499
G1 X82.563 Y75.561 E.02499
G1 X82.459 Y74.779 E.02474
G1 X82.437 Y74.365 E.01298
G1 X82.458 Y73.584 E.0245
G1 X82.564 Y72.779 E.02547
G1 X82.75 Y72.012 E.02475
G1 X83.015 Y71.268 E.02474
G1 X83.184 Y70.891 E.01298
G1 X83.551 Y70.22 E.02397
G1 X83.781 Y69.865 E.01325
G1 X84.022 Y69.537 E.01276
G1 X84.532 Y68.945 E.0245
G1 X84.826 Y68.654 E.01298
G1 X85.429 Y68.145 E.02474
G1 X86.089 Y67.697 E.02499
G1 X86.785 Y67.325 E.02474
G1 X87.164 Y67.16 E.01298
G1 X87.903 Y66.905 E.0245
G1 X89.261 Y66.553 E.04398
G1 X89.261 Y68.937 E.07475
G1 X88.4 Y69.188 E.02812
G1 X87.846 Y69.402 E.01861
G1 X87.32 Y69.676 E.01861
G1 X86.847 Y69.994 E.01784
G1 X86.395 Y70.378 E.01861
G1 X85.988 Y70.81 E.01861
G1 X85.816 Y71.026 E.00867
G1 X85.482 Y71.527 E.01887
G1 X85.349 Y71.77 E.00867
G1 X85.104 Y72.319 E.01887
G1 X84.931 Y72.862 E.01784
G1 X84.816 Y73.444 E.01861
G1 X84.766 Y74.035 E.01861
G1 X84.782 Y74.604 E.01784
G1 X84.864 Y75.188 E.01847
G1 X85.011 Y75.759 E.0185
G1 X85.222 Y76.314 E.01861
G1 X85.341 Y76.563 E.00867
G1 X85.642 Y77.075 E.01861
G1 X85.993 Y77.543 E.01836
G1 X86.395 Y77.97 E.01836
G1 X86.847 Y78.354 E.01861
G1 X87.32 Y78.671 E.01784
G1 X87.846 Y78.945 E.01861
G1 X88.4 Y79.159 E.01861
G1 X89.261 Y79.41 E.02812
G1 X89.261 Y81.647 E.07013
M204 P1000
G1 X88.884 Y81.307 F9000
M204 P800
;TYPE:External perimeter
G1 F1200
G1 X88.012 Y81.081 E.02823
G1 X87.299 Y80.835 E.02365
G1 X86.63 Y80.522 E.02314
G1 X85.963 Y80.121 E.02443
G1 X85.362 Y79.665 E.02365
G1 X84.812 Y79.149 E.02365
G1 X84.553 Y78.864 E.01205
G1 X84.103 Y78.283 E.02305
G1 X83.885 Y77.951 E.01247
G1 X83.693 Y77.621 E.01197
G1 X83.366 Y76.941 E.02365
G1 X83.112 Y76.228 E.02374
G1 X82.934 Y75.492 E.02374
G1 X82.835 Y74.744 E.02365
G1 X82.814 Y74.36 E.01205
G1 X82.834 Y73.609 E.02357
G1 X82.874 Y73.23 E.01196
G1 X82.934 Y72.853 E.01196
G1 X83.112 Y72.119 E.02365
G1 X83.365 Y71.409 E.02365
G1 X83.522 Y71.058 E.01205
G1 X83.875 Y70.413 E.02305
G1 X84.317 Y69.772 E.02443
G1 X84.808 Y69.203 E.02357
G1 X85.081 Y68.932 E.01205
G1 X85.657 Y68.446 E.02365
G1 X86.284 Y68.021 E.02374
G1 X86.949 Y67.665 E.02365
G1 X87.302 Y67.511 E.01205
G1 X88.012 Y67.266 E.02357
G1 X88.884 Y67.04 E.02823
G1 X88.884 Y68.654 E.05061
G1 X88.279 Y68.831 E.01975
M73 P3 R18
G1 X87.691 Y69.058 E.01977
G1 X87.131 Y69.349 E.01977
G1 X86.615 Y69.696 E.0195
G1 X86.135 Y70.104 E.01977
G1 X85.702 Y70.563 E.01977
G1 X85.511 Y70.804 E.00966
G1 X85.16 Y71.332 E.01986
G1 X85.011 Y71.602 E.00966
G1 X84.753 Y72.18 E.01986
G1 X84.565 Y72.773 E.0195
G1 X84.442 Y73.391 E.01977
G1 X84.389 Y74.02 E.01977
G1 X84.407 Y74.641 E.0195
G1 X84.494 Y75.261 E.01963
G1 X84.651 Y75.873 E.01982
G1 X84.875 Y76.463 E.01977
G1 X85.008 Y76.741 E.00966
G1 X85.328 Y77.284 E.01977
G1 X85.704 Y77.786 E.01968
G1 X86.135 Y78.243 E.01968
G1 X86.615 Y78.651 E.01977
G1 X86.869 Y78.832 E.00975
G1 X87.131 Y78.998 E.00975
G1 X87.691 Y79.289 E.01977
G1 X88.279 Y79.516 E.01977
G1 X88.884 Y79.693 E.01975
G1 X88.884 Y81.247 E.04873
M204 P1000
G1 X88.86 Y81.706 F9000
G1 E-2.24 F4200
;WIPE_START
G1 F7200
G1 X88.012 Y81.081 E-.4917
G1 X87.299 Y80.835 E-.41803
G1 X87.295 Y80.833 E-.00227
;WIPE_END
G1 E-.048 F4200
G1 Z.4 F720
G1 X88.836 Y78.183 F9000
G1 Z.2 F720
G1 E3.2 F2400
M204 P800
;TYPE:Perimeter
G1 F1200
G1 X88.836 Y75.327 E.08954
G1 X96.308 Y75.327 E.23428
G1 X96.308 Y78.229 E.09098
G1 X88.85 Y78.229 E.23383
M204 P1000
G1 X89.213 Y77.829 F9000
M204 P800
G1 F1200
G1 X89.213 Y75.704 E.06662
G1 X95.931 Y75.704 E.21063
G1 X95.931 Y77.852 E.06734
G1 X89.25 Y77.852 E.20947
M204 P1000
G1 X89.59 Y77.475 F9000
M204 P800
;TYPE:External perimeter
G1 F1200
G1 X89.59 Y76.082 E.04369
G1 X95.554 Y76.082 E.18699
G1 X95.554 Y77.475 E.04369
G1 X89.65 Y77.475 E.18511
M204 P1000
G1 X89.191 Y77.506 F9000
G1 E-2.24 F4200
;WIPE_START
G1 F7200
G1 X89.59 Y76.082 E-.77291
G1 X89.841 Y76.082 E-.13909
;WIPE_END
G1 E-.048 F4200
G1 Z.4 F720
G1 X88.836 Y72.902 F9000
G1 Z.2 F720
G1 E3.2 F2400
M204 P800
;TYPE:Perimeter
G1 F1200
G1 X88.836 Y70.046 E.08955
G1 X96.308 Y70.046 E.23428
G1 X96.308 Y72.947 E.09098
G1 X88.85 Y72.947 E.23383
M204 P1000
G1 X89.213 Y72.547 F9000
M204 P800
G1 F1200
G1 X89.213 Y70.423 E.06662
G1 X95.931 Y70.423 E.21063
G1 X95.931 Y72.57 E.06734
G1 X89.25 Y72.57 E.20947
M204 P1000
G1 X89.59 Y72.193 F9000
M204 P800
;TYPE:External perimeter
G1 F1200
G1 X89.59 Y70.8 E.04369
G1 X95.554 Y70.8 E.18699
G1 X95.554 Y72.193 E.04369
G1 X89.65 Y72.193 E.18511
M204 P1000
G1 X89.191 Y72.224 F9000
G1 E-2.24 F4200
;WIPE_START
G1 F7200
G1 X89.59 Y70.8 E-.77291
G1 X89.841 Y70.8 E-.13909
;WIPE_END
G1 E-.048 F4200
G1 Z.4 F720
G1 X90.945 Y66.391 F9000
G1 Z.2 F720
G1 E3.2 F2400
M204 P800
;TYPE:Perimeter
G1 F1200
G1 X91.652 Y66.509 E.02246
G1 X92.344 Y66.692 E.02245
G1 X93.025 Y66.941 E.02273
G1 X93.676 Y67.248 E.02256
G1 X93.969 Y67.412 E.01055
G1 X94.579 Y67.809 E.02281
G1 X95.14 Y68.254 E.02246
G1 X95.659 Y68.748 E.02246
G1 X96.131 Y69.287 E.02246
G1 X96.551 Y69.867 E.02246
G1 X96.917 Y70.482 E.02245
G1 X97.228 Y71.136 E.0227
G1 X97.477 Y71.812 E.02257
G1 X97.571 Y72.135 E.01055
G1 X97.727 Y72.845 E.02281
G1 X97.816 Y73.556 E.02246
G1 X97.84 Y74.282 E.0228
G1 X97.828 Y74.626 E.01079
G1 X97.753 Y75.342 E.02256
G1 X97.612 Y76.055 E.0228
G1 X97.522 Y76.387 E.01079
G1 X97.287 Y77.068 E.02257
G1 X96.988 Y77.731 E.0228
G1 X96.825 Y78.034 E.01078
G1 X96.436 Y78.652 E.02291
G1 X96.233 Y78.93 E.01079
G1 X95.77 Y79.481 E.02257
G1 X95.254 Y79.994 E.0228
G1 X94.994 Y80.218 E.01079
G1 X94.41 Y80.657 E.0229
G1 X94.121 Y80.844 E.01079
G1 X93.49 Y81.194 E.02262
G1 X92.286 Y81.734 E.04136
G1 X92.283 Y81.688 E.00145
G1 X90.759 Y82.102 E.0495
G1 X90.522 Y82.198 E.00802
G1 X90.212 Y82.223 E.00975
G1 X90.047 Y82.209 E.00521
G1 X89.638 Y82.075 E.01349
G1 X89.638 Y79.128 E.09243
G1 X88.521 Y78.801 E.03648
G1 X88.002 Y78.601 E.01745
G1 X87.508 Y78.344 E.01745
G1 X87.079 Y78.056 E.01619
G1 X86.655 Y77.696 E.01745
G1 X86.282 Y77.3 E.01703
G1 X85.957 Y76.866 E.01703
G1 X85.675 Y76.386 E.01746
G1 X85.569 Y76.165 E.00767
G1 X85.371 Y75.645 E.01745
G1 X85.235 Y75.114 E.01717
G1 X85.158 Y74.567 E.01732
G1 X85.143 Y74.051 E.01619
G1 X85.19 Y73.496 E.01746
G1 X85.298 Y72.95 E.01745
G1 X85.455 Y72.458 E.01619
G1 X85.687 Y71.938 E.01788
G1 X85.805 Y71.723 E.00767
G1 X86.121 Y71.249 E.01788
G1 X86.273 Y71.057 E.00767
G1 X86.655 Y70.652 E.01746
G1 X87.079 Y70.291 E.01745
G1 X87.508 Y70.003 E.01619
G1 X88.001 Y69.746 E.01745
G1 X88.521 Y69.546 E.01746
G1 X89.638 Y69.22 E.03648
G1 X89.638 Y66.346 E.09009
G1 X90.231 Y66.337 E.01861
G1 X90.886 Y66.386 E.02058
M204 P1000
G1 E-2.24 F4200
;WIPE_START
G1 F7200
G1 X91.652 Y66.509 E-.43005
G1 X92.344 Y66.692 E-.39679
G1 X92.488 Y66.745 E-.08516
;WIPE_END
G1 E-.048 F4200
G1 Z.4 F720
G1 X92.657 Y82.625 F9000
G1 Z.2 F720
G1 E3.2 F2400
M204 P800
G1 F1200
G1 X92.657 Y83.653 E.03223
G1 X92.571 Y83.772 E.00461
G1 X92.517 Y87.104 E.10448
G1 X92.085 Y87.586 E.0203
G1 X92.002 Y87.703 E.00449
G1 X92.045 Y86.997 E.02216
G1 X92.048 Y84.059 E.09212
G1 X92.039 Y83.551 E.01594
G1 X91.94 Y82.172 E.04335
G1 X90.88 Y82.46 E.03442
G1 X90.61 Y82.569 E.00913
G1 X90.211 Y82.602 E.01256
G1 X89.966 Y82.58 E.00772
G1 X89.621 Y82.457 E.01149
G1 X89.151 Y82.359 E.01505
G1 X88.705 Y82.3 E.01409
G1 X88.214 Y82.277 E.01542
G1 X87.863 Y82.309 E.01105
G1 X87.249 Y82.13 E.02006
G1 X86.708 Y81.917 E.01821
G1 X86.555 Y81.77 E.00665
G1 X86.225 Y81.521 E.01297
G1 X85.282 Y80.902 E.03537
G1 X84.684 Y80.44 E.02368
G1 X84.135 Y79.93 E.0235
M73 P4 R18
G1 X83.877 Y79.655 E.01182
G1 X83.638 Y79.375 E.01156
G1 X83.182 Y78.762 E.02396
G1 X82.986 Y78.457 E.01135
G1 X82.619 Y77.787 E.02396
G1 X82.467 Y77.458 E.01136
G1 X82.197 Y76.751 E.02375
G1 X81.992 Y76.021 E.02374
G1 X81.917 Y75.659 E.0116
G1 X81.816 Y74.916 E.02351
G1 X81.782 Y74.166 E.02354
G1 X81.817 Y73.416 E.02353
G1 X81.922 Y72.665 E.02378
G1 X82.093 Y71.935 E.02351
G1 X82.199 Y71.589 E.01136
G1 X82.47 Y70.882 E.02375
G1 X82.802 Y70.208 E.02354
G1 X83.194 Y69.568 E.02354
G1 X83.643 Y68.966 E.02353
G1 X84.151 Y68.402 E.0238
G1 X84.7 Y67.893 E.02349
G1 X84.982 Y67.665 E.01136
G1 X85.603 Y67.231 E.02375
G1 X86.255 Y66.859 E.02354
G1 X86.938 Y66.548 E.02354
G1 X87.647 Y66.3 E.02353
G1 X88.384 Y66.117 E.0238
G1 X89.124 Y66.002 E.02349
G1 X89.485 Y65.972 E.01136
G1 X90.242 Y65.959 E.02375
G1 X90.991 Y66.016 E.02354
G1 X91.731 Y66.14 E.02354
G1 X92.457 Y66.332 E.02354
G1 X93.17 Y66.592 E.02381
G1 X93.848 Y66.912 E.02351
G1 X94.165 Y67.089 E.01136
G1 X94.799 Y67.503 E.02375
G1 X95.388 Y67.969 E.02354
G1 X95.932 Y68.486 E.02354
G1 X96.426 Y69.051 E.02354
G1 X96.867 Y69.659 E.02354
G1 X97.25 Y70.305 E.02354
G1 X97.576 Y70.99 E.02378
G1 X97.835 Y71.693 E.02351
G1 X97.937 Y72.041 E.01136
G1 X98.099 Y72.781 E.02375
G1 X98.192 Y73.526 E.02354
G1 X98.217 Y74.283 E.02375
G1 X98.204 Y74.653 E.0116
G1 X98.126 Y75.398 E.02351
G1 X97.979 Y76.141 E.02375
G1 X97.882 Y76.498 E.0116
G1 X97.637 Y77.207 E.02351
G1 X97.326 Y77.898 E.02375
G1 X97.151 Y78.223 E.0116
G1 X96.748 Y78.864 E.02372
G1 X96.53 Y79.163 E.0116
G1 X96.048 Y79.737 E.02351
G1 X95.51 Y80.27 E.02375
G1 X95.23 Y80.512 E.0116
G1 X94.626 Y80.966 E.02371
G1 X94.315 Y81.168 E.0116
G1 X93.659 Y81.532 E.02354
G1 X92.657 Y81.98 E.03441
G1 X92.657 Y82.565 E.01832
M204 P1000
G1 X93.034 Y82.225 F9000
M204 P800
;TYPE:External perimeter
G1 F1200
G1 X93.034 Y83.775 E.0486
G1 X92.946 Y83.897 E.00472
G1 X92.892 Y87.25 E.10517
G1 X92.38 Y87.822 E.02404
G1 X92.101 Y88.216 E.01515
G1 X91.879 Y88.613 E.01427
G1 X91.525 Y88.988 E.01617
G1 X91.557 Y90.28 E.0405
G1 X91.813 Y90.609 E.01309
G1 X92.064 Y91.068 E.01639
G1 X91.691 Y91.576 E.01976
G1 X91.471 Y91.811 E.01008
G1 X91.471 Y88.472 E.1047
G1 X91.584 Y87.998 E.01527
G1 X91.65 Y87.49 E.01604
G1 X91.668 Y86.99 E.0157
G1 X91.671 Y84.062 E.09179
G1 X91.662 Y83.568 E.01551
G1 X91.596 Y82.656 E.02866
G1 X91.001 Y82.818 E.01935
G1 X90.698 Y82.941 E.01023
G1 X90.464 Y82.96 E.00737
G1 X90.464 Y92.887 E.31127
G1 X90.421 Y92.933 E.00198
G1 X90.401 Y94.278 E.04216
G1 X90.464 Y94.339 E.00276
G1 X90.464 Y108.108 E.43171
G1 X90.281 Y108.305 E.00844
G1 X90.281 Y82.986 E.79385
G1 X89.884 Y82.952 E.01247
G1 X89.518 Y82.821 E.0122
G1 X89.088 Y82.731 E.01379
G1 X88.672 Y82.676 E.01316
G1 X88.222 Y82.655 E.01411
G1 X87.826 Y82.691 E.01248
G1 X87.127 Y82.487 E.02283
G1 X86.5 Y82.241 E.0211
G1 X86.31 Y82.057 E.0083
G1 X86.008 Y81.829 E.01186
G1 X85.063 Y81.21 E.03544
G1 X84.44 Y80.728 E.02468
G1 X83.869 Y80.198 E.02444
G1 X83.343 Y79.61 E.02473
G1 X82.872 Y78.976 E.02477
G1 X82.662 Y78.65 E.01216
G1 X82.282 Y77.957 E.02477
